!!!OTL: 1a. Die schoene Hannale
!!!ARE: Europa, Mitteleuropa, Deutschland, Schlesien, Joachimstal
!!!ODT: 1813
!!!SCT: E0001C
!!!TXL: @@DE
!!!YEM: Copyright 1995, estate of Helmut Schaffrath.
**kern	**text
*ICvox	*
*M4/4	*
*k[b-]	*
*F:	*
!LO:TX:a:t=Ruhig und ernſt.	!
!LO:TX:a:t=Aus der Gegend von Joachimsthal. 1813.	!
{4c	Von
=1	=1
4f	Gold
4f	ließ
4a	er
4cc/	eine
=2	=2
4ff	Brü-
8eeL	-cke
8ddJ	.
4cc}	baun
{8.ff	[von
16ff	der
=3	=3
4dd	Burg
4b-	bis
4g	ü-ber
4cc	die
=4	=4
2a	See,]
4r}	.
{4a	dar-
=5	=5
8ccL	-auf
8b-J	.
4b-	ſollt
4g	ſie
4g	ſpa-
=6	=6
4a	-ʒie-
8aL	-ren
8b-J	.
4cc}	gehn,
{8aL	die
8gJ	.
=7	=7
8.f	ſchö-
16f	-ne
8.f	jun-
16f	-ge
8aL	Li-
8gJ	.
8fL	-lo-
8gJ	.
=8	=8
2f	-fe.
4r}	.
==	==
!!!AGN: Sage, Maerchen -, Zauber - Lied, Ballade ?
!!!ONB: ESAC (Essen Associative Code) Database: ERK1
!!!AMT: simple quadruple
!!!AIN: vox
!!!EED: Helmut Schaffrath
!!!EEV: 1.0
!!!GTL: Nachtklaenge der Goettersage (Zaubermaeren)
!!!URL-scan: https://rosdok.uni-rostock.de/mcrviewer/recordIdentifier/rosdok_ppn745146120/iview2/phys_0065.iview2?x=-4.404412318551749&y=640.876861914614&scale=0.6456904138606624&rotation=0&layout=singlePageLayout&logicalDiv=log_0009
!!!ENC: Anna Maria Matuszewska
!!!EEV: 2024/21/11
*-	*-
